src/assets/img/icons/duotone-icons/General/Shield-check.svg

<?xml version="1.0" encoding="UTF-8"?>
<svg width="24px" height="24px" viewBox="0 0 24 24" version="1.1" xmlns="http://www.w3.org/2000/svg" xmlns:xlink="http://www.w3.org/1999/xlink">
    <!-- Generator: Sketch 52.2 (67145) - http://www.bohemiancoding.com/sketch -->
    <title>Stockholm-icons / General / Shield-check</title>
    <desc>Created with Sketch.</desc>
    <g id="Stockholm-icons-/-General-/-Shield-check" stroke="none" stroke-width="1" fill="none" fill-rule="evenodd">
        <rect id="bound" x="0" y="0" width="24" height="24"></rect>
        <path d="M4,4 L11.6314229,2.5691082 C11.8750185,2.52343403 12.1249815,2.52343403 12.3685771,2.5691082 L20,4 L20,13.2830094 C20,16.2173861 18.4883464,18.9447835 16,20.5 L12.5299989,22.6687507 C12.2057287,22.8714196 11.7942713,22.8714196 11.4700011,22.6687507 L8,20.5 C5.51165358,18.9447835 4,16.2173861 4,13.2830094 L4,4 Z" id="Path-50" fill="#335EEA" opacity="0.3"></path>
        <path d="M11.1750002,14.75 C10.9354169,14.75 10.6958335,14.6541667 10.5041669,14.4625 L8.58750019,12.5458333 C8.20416686,12.1625 8.20416686,11.5875 8.58750019,11.2041667 C8.97083352,10.8208333 9.59375019,10.8208333 9.92916686,11.2041667 L11.1750002,12.45 L14.3375002,9.2875 C14.7208335,8.90416667 15.2958335,8.90416667 15.6791669,9.2875 C16.0625002,9.67083333 16.0625002,10.2458333 15.6791669,10.6291667 L11.8458335,14.4625 C11.6541669,14.6541667 11.4145835,14.75 11.1750002,14.75 Z" id="check-path" fill="#335EEA"></path>
    </g>
</svg>

<svg width="24" height="24" viewBox="0 0 24 24" xmlns="http://www.w3.org/2000/svg"><g fill="none" fill-rule="evenodd"><path d="M0 0h24v24H0z"/><path d="M4 4l7.631-1.43a2 2 0 01.738 0L20 4v9.283a8.51 8.51 0 01-4 7.217l-3.47 2.169a1 1 0 01-1.06 0L8 20.5a8.51 8.51 0 01-4-7.217V4z" fill="#335EEA" opacity=".3"/><path d="M11.175 14.75a.946.946 0 01-.67-.287l-1.917-1.917a.926.926 0 010-1.342c.383-.383 1.006-.383 1.341 0l1.246 1.246 3.163-3.162a.926.926 0 011.341 0 .926.926 0 010 1.341l-3.833 3.834a.946.946 0 01-.671.287z" fill="#335EEA"/></g></svg>
